Papirus-GTK/24x24/apps/0ad.svg

<svg height="24" viewBox="0 0 24 24" width="24" xmlns="http://www.w3.org/2000/svg"><path d="m12 2a10 10 0 0 0 -10 10 10 10 0 0 0  10 10 10 10 0 0 0  10-10 10 10 0 0 0 -10-10z" fill="#c8ab37"/><path d="m12 2a10 10 0 0 0 -9.9296875 8.925781 10 9.5000085 0 0 1  9.9296875-8.425781 10 9.5000085 0 0 1  9.960937 8.723633 10 10 0 0 0 -9.960937-9.223633zm9.960937 9.223633a10 10 0 0 1  .039063.776367 10 9.5000085 0 0 0 -.039063-.776367zm-19.8906245-.297852a10 9.5000085 0 0 0 -.024414.19629 10 10 0 0 1  .024414-.19629zm-.024414.19629a10 10 0 0 0 -.0458985.877929 10 9.5000085 0 0 1  .0458985-.877929z" fill="#fff" opacity=".2"/><path d="m12 22a10 10 0 0 1 -9.9296875-8.9258 10 9.5000085 0 0 0  9.9296875 8.4258 10 9.5000085 0 0 0  9.960937-8.72365 10 10 0 0 1 -9.960937 9.22365zm9.960937-9.22365a10 10 0 0 0  .039063-.77635 10 9.5000085 0 0 1 -.039065.77635zm-19.8906245.29785a10 9.5000085 0 0 1 -.024414-.19625 10 10 0 0 0  .024414.19625zm-.024414-.19625a10 10 0 0 1 -.0458985-.87795 10 9.5000085 0 0 0  .045898.87795z" opacity=".3"/><path d="m13 4.570125v6.929688h6.926758a8 8 0 0 0 -6.926758-6.929688zm-2 .00293a8 8 0 0 0 -6.9296875 6.926758h6.9296875v-6.9267583zm-6.9267578 8.926758a8 8 0 0 0 6.9267578 6.929687v-6.929687zm8.9267578 0v6.926757a8 8 0 0 0 6.929687-6.926757z" opacity=".2"/><path d="m13 4.0703125v6.9296875h6.926758a8 8 0 0 0 -6.926758-6.9296875zm-2 .00293a8 8 0 0 0 -6.9296875 6.9267575h6.9296875v-6.9267578zm-6.9267578 8.9267575a8 8 0 0 0 6.9267578 6.929687v-6.929687zm8.9267578 0v6.926758a8 8 0 0 0 6.929687-6.926758z" fill="#fff"/></svg>

<?xml version="1.0" encoding="UTF-8" standalone="no"?>
<svg
   xmlns:dc="http://purl.org/dc/elements/1.1/"
   xmlns:cc="http://creativecommons.org/ns#"
   xmlns:rdf="http://www.w3.org/1999/02/22-rdf-syntax-ns#"
   xmlns:svg="http://www.w3.org/2000/svg"
   xmlns="http://www.w3.org/2000/svg"
   xmlns:sodipodi="http://sodipodi.sourceforge.net/DTD/sodipodi-0.dtd"
   xmlns:inkscape="http://www.inkscape.org/namespaces/inkscape"
   version="1.1"
   id="svg4261"
   viewBox="0 0 24 24"
   height="24"
   width="24"
   inkscape:version="0.91 r13725"
   sodipodi:docname="0ad.svg">
  <sodipodi:namedview
     pagecolor="#828282"
     bordercolor="#666666"
     borderopacity="1"
     objecttolerance="10"
     gridtolerance="10"
     guidetolerance="10"
     inkscape:pageopacity="0"
     inkscape:pageshadow="2"
     inkscape:window-width="1600"
     inkscape:window-height="849"
     id="namedview10"
     showgrid="false"
     inkscape:zoom="8.08"
     inkscape:cx="24"
     inkscape:cy="14.09901"
     inkscape:window-x="0"
     inkscape:window-y="0"
     inkscape:window-maximized="1"
     inkscape:current-layer="svg4261" />
  <defs
     id="defs4263" />
  <metadata
     id="metadata4266">
    <rdf:RDF>
      <cc:Work
         rdf:about="">
        <dc:format>image/svg+xml</dc:format>
        <dc:type
           rdf:resource="http://purl.org/dc/dcmitype/StillImage" />
        <dc:title></dc:title>
      </cc:Work>
    </rdf:RDF>
  </metadata>
  <g
     id="g4197">
    <path
       id="path4153"
       d="M 12,2 A 10,10 0 0 0 2,12 10,10 0 0 0 12,22 10,10 0 0 0 22,12 10,10 0 0 0 12,2 Z"
       style="opacity:1;fill:#c8ab37;fill-opacity:1;stroke:none;stroke-width:0.2;stroke-miterlimit:4;stroke-dasharray:none;stroke-opacity:1"
       inkscape:connector-curvature="0" />
    <path
       id="path4152"
       d="M 12,2 A 10,10 0 0 0 2.0703125,10.925781 10,9.5000085 0 0 1 12,2.5 10,9.5000085 0 0 1 21.960937,11.223633 10,10 0 0 0 12,2 Z m 9.960937,9.223633 A 10,10 0 0 1 22,12 10,9.5000085 0 0 0 21.960937,11.223633 Z M 2.0703125,10.925781 a 10,9.5000085 0 0 0 -0.024414,0.19629 10,10 0 0 1 0.024414,-0.19629 z m -0.024414,0.19629 A 10,10 0 0 0 2,12 10,9.5000085 0 0 1 2.0458985,11.122071 Z"
       style="opacity:0.2;fill:#ffffff;fill-opacity:1;stroke:none;stroke-width:10;stroke-miterlimit:4;stroke-dasharray:none;stroke-opacity:1"
       inkscape:connector-curvature="0" />
    <path
       style="opacity:0.3;fill:#000000;fill-opacity:1;stroke:none;stroke-width:10;stroke-miterlimit:4;stroke-dasharray:none;stroke-opacity:1"
       d="M 12,22 A 10,10 0 0 1 2.0703125,13.0742 10,9.5000085 0 0 0 12,21.5 10,9.5000085 0 0 0 21.960937,12.77635 10,10 0 0 1 12,22 Z m 9.960937,-9.22365 A 10,10 0 0 0 22,12 10,9.5000085 0 0 1 21.960935,12.77635 Z M 2.0703125,13.0742 a 10,9.5000085 0 0 1 -0.024414,-0.19625 10,10 0 0 0 0.024414,0.19625 z M 2.0458985,12.87795 A 10,10 0 0 1 2,12 a 10,9.5000085 0 0 0 0.045898,0.87795 z"
       id="path4160"
       inkscape:connector-curvature="0" />
    <path
       inkscape:connector-curvature="0"
       style="opacity:0.2;fill:#000000;fill-opacity:1;stroke:none;stroke-width:2;stroke-linecap:butt;stroke-linejoin:miter;stroke-miterlimit:4;stroke-dasharray:none;stroke-opacity:1"
       d="m 13,4.570125 0,6.929688 6.926758,0 A 8,8 0 0 0 13,4.570125 Z m -2,0.00293 a 8,8 0 0 0 -6.9296875,6.926758 l 6.9296875,0 0,-6.9267583 z M 4.0732422,13.499813 A 8,8 0 0 0 11,20.4295 l 0,-6.929687 -6.9267578,0 z m 8.9267578,0 0,6.926757 a 8,8 0 0 0 6.929687,-6.926757 l -6.929687,0 z"
       id="path4164" />
    <path
       id="path4155"
       d="M 13,4.0703125 13,11 19.926758,11 A 8,8 0 0 0 13,4.0703125 Z m -2,0.00293 A 8,8 0 0 0 4.0703125,11 L 11,11 11,4.0732422 Z M 4.0732422,13 A 8,8 0 0 0 11,19.929687 L 11,13 4.0732422,13 Z M 13,13 13,19.926758 A 8,8 0 0 0 19.929687,13 L 13,13 Z"
       style="opacity:1;fill:#ffffff;fill-opacity:1;stroke:none;stroke-width:2;stroke-linecap:butt;stroke-linejoin:miter;stroke-miterlimit:4;stroke-dasharray:none;stroke-opacity:1"
       inkscape:connector-curvature="0" />
  </g>
</svg>
